assets/2023/icons/config_dark.svg

<svg width="16" height="16" viewBox="0 0 16 16" fill="none" xmlns="http://www.w3.org/2000/svg">
<path d="M11.9976 13C12.5498 13 12.9976 12.5523 12.9976 12C12.9976 11.4477 12.5498 11 11.9976 11C11.4453 11 10.9976 11.4477 10.9976 12C10.9976 12.5523 11.4453 13 11.9976 13Z" fill="#548AF7"/>
<path fill-rule="evenodd" clip-rule="evenodd" d="M13.1192 15.6756C13.046 15.8707 12.8594 16 12.651 16H11.344C11.1356 16 10.949 15.8707 10.8758 15.6756L10.6263 15.0102C10.5424 14.7865 10.3119 14.6534 10.0761 14.6926L9.37521 14.8092C9.16961 14.8434 8.96437 14.7464 8.86016 14.5659L8.20666 13.4341C8.10245 13.2536 8.12113 13.0273 8.25355 12.8664L8.70498 12.3177C8.85681 12.1331 8.85681 11.8669 8.70498 11.6824L8.25353 11.1336C8.12111 10.9727 8.10243 10.7464 8.20664 10.5659L8.86014 9.43405C8.96435 9.25355 9.1696 9.15663 9.37519 9.19083L10.0761 9.30742C10.3119 9.34664 10.5424 9.21353 10.6263 8.98976L10.8758 8.32444C10.949 8.12929 11.1356 8 11.344 8H12.651C12.8594 8 13.046 8.12929 13.1192 8.32444L13.3687 8.98976C13.4526 9.21353 13.6831 9.34664 13.9189 9.30742L14.6198 9.19083C14.8254 9.15663 15.0307 9.25355 15.1349 9.43405L15.7884 10.5659C15.8926 10.7464 15.8739 10.9727 15.7415 11.1336L15.29 11.6824C15.1382 11.8669 15.1382 12.1331 15.29 12.3177L15.7415 12.8664C15.8739 13.0273 15.8926 13.2536 15.7883 13.4341L15.1348 14.5659C15.0306 14.7464 14.8254 14.8434 14.6198 14.8092L13.9189 14.6926C13.6831 14.6534 13.4526 14.7865 13.3687 15.0102L13.1192 15.6756ZM11.6905 15H12.3045L12.4323 14.6591C12.6841 13.9878 13.3757 13.5885 14.0829 13.7061L14.4421 13.7659L14.7491 13.2341L14.5178 12.953C14.0623 12.3993 14.0623 11.6007 14.5178 11.047L14.7491 10.7659L14.4421 10.2341L14.0829 10.2939C13.3757 10.4115 12.6841 10.0122 12.4323 9.34088L12.3045 9H11.6905L11.5627 9.34088C11.3109 10.0122 10.6193 10.4115 9.91205 10.2939L9.55291 10.2341L9.24591 10.7659L9.47722 11.047C9.93273 11.6007 9.93273 12.3993 9.47722 12.953L9.24593 13.2341L9.55293 13.7659L9.91205 13.7061C10.6193 13.5885 11.3109 13.9878 11.5627 14.6591L11.6905 15Z" fill="#548AF7"/>
<path fill-rule="evenodd" clip-rule="evenodd" d="M12.3086 15H11.6946L11.5668 14.6591C11.315 13.9878 10.6234 13.5885 9.91614 13.7061L9.55702 13.7659L9.25002 13.2341L9.48131 12.953C9.93681 12.3993 9.93681 11.6007 9.48131 11.047L9.25 10.7659L9.557 10.2341L9.91614 10.2939C10.6234 10.4115 11.315 10.0122 11.5668 9.34088L11.6946 9H12.3086L12.4364 9.34088C12.6882 10.0122 13.3798 10.4115 14.087 10.2939L14.4462 10.2341L14.7532 10.7659L14.5219 11.047C14.0664 11.6007 14.0664 12.3993 14.5219 12.953L14.7532 13.2341L14.4462 13.7659L14.087 13.7061C13.3798 13.5885 12.6882 13.9878 12.4364 14.6591L12.3086 15ZM13.0016 12C13.0016 12.5523 12.5539 13 12.0016 13C11.4494 13 11.0016 12.5523 11.0016 12C11.0016 11.4477 11.4494 11 12.0016 11C12.5539 11 13.0016 11.4477 13.0016 12Z" fill="#25324D"/>
<path d="M3 13V5.82843C3 5.29799 3.21071 4.78929 3.58579 4.41421L6.41421 1.58579C6.78929 1.21071 7.29799 1 7.82843 1H11C12.1046 1 13 1.89543 13 3V7.10002C12.6769 7.03443 12.3425 7 12 7C9.23858 7 7 9.23858 7 12C7 13.1256 7.37194 14.1643 7.99963 15H5C3.89543 15 3 14.1046 3 13Z" fill="#43454A"/>
<path fill-rule="evenodd" clip-rule="evenodd" d="M3 13V5.82843C3 5.29799 3.21071 4.78929 3.58579 4.41421L6.41421 1.58579C6.78929 1.21071 7.29799 1 7.82843 1H11C12.1046 1 13 1.89543 13 3V7.10002C12.6769 7.03443 12.3425 7 12 7V3C12 2.44772 11.5523 2 11 2H8V4C8 5.10457 7.10457 6 6 6H4V13C4 13.5523 4.44772 14 5 14H7.41604C7.57202 14.357 7.76849 14.6923 7.99963 15H5C3.89543 15 3 14.1046 3 13ZM4.41421 5L7 2.41421V4C7 4.55228 6.55228 5 6 5H4.41421Z" fill="#CED0D6"/>
</svg>

<svg xmlns="http://www.w3.org/2000/svg" width="16" height="16" fill="none" viewBox="0 0 16 16"><path fill="#548AF7" d="M11.998 13a1 1 0 1 0 0-2 1 1 0 0 0 0 2"/><path fill="#548AF7" fill-rule="evenodd" d="M13.12 15.676a.5.5 0 0 1-.469.324h-1.307a.5.5 0 0 1-.468-.324l-.25-.666a.5.5 0 0 0-.55-.317l-.7.116a.5.5 0 0 1-.516-.243l-.653-1.132a.5.5 0 0 1 .047-.568l.451-.548a.5.5 0 0 0 0-.636l-.451-.548a.5.5 0 0 1-.047-.568l.653-1.132a.5.5 0 0 1 .515-.243l.701.116a.5.5 0 0 0 .55-.317l.25-.666A.5.5 0 0 1 11.344 8h1.307a.5.5 0 0 1 .468.324l.25.666a.5.5 0 0 0 .55.317l.7-.116a.5.5 0 0 1 .516.243l.653 1.132a.5.5 0 0 1-.046.568l-.452.548a.5.5 0 0 0 0 .636l.452.548a.5.5 0 0 1 .046.568l-.653 1.132a.5.5 0 0 1-.515.243l-.701-.116a.5.5 0 0 0-.55.317zM11.69 15h.615l.127-.34a1.5 1.5 0 0 1 1.65-.954l.36.06.307-.532-.231-.281a1.5 1.5 0 0 1 0-1.906l.231-.281-.307-.532-.36.06a1.5 1.5 0 0 1-1.65-.953L12.305 9h-.614l-.128.34a1.5 1.5 0 0 1-1.651.954l-.36-.06-.306.532.231.281a1.5 1.5 0 0 1 0 1.906l-.231.281.307.532.359-.06a1.5 1.5 0 0 1 1.65.953z" clip-rule="evenodd"/><path fill="#25324D" fill-rule="evenodd" d="M12.309 15h-.614l-.128-.34a1.5 1.5 0 0 0-1.65-.954l-.36.06-.307-.532.231-.281a1.5 1.5 0 0 0 0-1.906l-.231-.281.307-.532.36.06a1.5 1.5 0 0 0 1.65-.953L11.695 9h.614l.127.34a1.5 1.5 0 0 0 1.651.954l.36-.06.306.532-.231.281a1.5 1.5 0 0 0 0 1.906l.231.281-.307.532-.359-.06a1.5 1.5 0 0 0-1.65.953zm.693-3a1 1 0 1 1-2 0 1 1 0 0 1 2 0" clip-rule="evenodd"/><path fill="#43454A" d="M3 13V5.828a2 2 0 0 1 .586-1.414l2.828-2.828A2 2 0 0 1 7.828 1H11a2 2 0 0 1 2 2v4.1A5 5 0 0 0 8 15H5a2 2 0 0 1-2-2"/><path fill="#CED0D6" fill-rule="evenodd" d="M3 13V5.828a2 2 0 0 1 .586-1.414l2.828-2.828A2 2 0 0 1 7.828 1H11a2 2 0 0 1 2 2v4.1a5 5 0 0 0-1-.1V3a1 1 0 0 0-1-1H8v2a2 2 0 0 1-2 2H4v7a1 1 0 0 0 1 1h2.416q.235.537.584 1H5a2 2 0 0 1-2-2m1.414-8L7 2.414V4a1 1 0 0 1-1 1z" clip-rule="evenodd"/></svg>
